X:56
T:The Night Peece
T:The Shaking of the Sheets
M:6/8
L:1/8
R:Jig
P:(AABBB)3
K:Dmaj clef=treble
P:A
[|:"D"f2d a2f|"Bm"d2A df2|"A"eg2 f>ed|"G"Bde/2f/2 g2a:|]
P:B
[|:"G"b2g "D"a2g|"G"f>ed "A"e2A|"D"d2c "G"d2A|"A"fe2 d3 :|]

